TeXmacs/misc/pixmaps/dark/tm_copy.svg

<?xml version="1.0" encoding="UTF-8"?>
<!-- Created with Inkscape (http://www.inkscape.org/) -->
<svg id="svg5375" width="24" height="24" version="1.1" xmlns="http://www.w3.org/2000/svg" xmlns:cc="http://creativecommons.org/ns#" xmlns:dc="http://purl.org/dc/elements/1.1/" xmlns:rdf="http://www.w3.org/1999/02/22-rdf-syntax-ns#" xmlns:xlink="http://www.w3.org/1999/xlink">
 <metadata id="metadata5380">
  <rdf:RDF>
   <cc:Work rdf:about="">
    <dc:format>image/svg+xml</dc:format>
    <dc:type rdf:resource="http://purl.org/dc/dcmitype/StillImage"/>
    <dc:title/>
   </cc:Work>
  </rdf:RDF>
 </metadata>
 <g id="layer1">
  <path id="path9719" d="m5 4v11h13v-11z" fill-opacity=".87843" stroke-width="0"/>
  <path id="path8471" d="m3 4v19h17v-19h-2v11h-13v-11z" fill-opacity=".87843" stroke-width="0"/>
  <path id="path8349" d="m2.5 0.5v23h18v-23z" fill="none" stroke="#7f7f7f" stroke-width="1px"/>
  <path id="path8377" d="m5 4v11h13v-11z" fill="none" stroke-width="0"/>
  <path id="path8381" d="m5.5 4.5v10h12v-10z" fill="none" stroke="#bfbfbf" stroke-dasharray="1, 1" stroke-dashoffset=".5"/>
  <path id="path8383" d="m5 4v1h1v-1z" fill="#bfbfbf" stroke-width="0"/>
  <path id="path8473" d="m3 1v3h17v-3z" fill-opacity=".87843" stroke-width="0"/>
  <image id="image8515" x="10" y="7" width="13" height="11" xlink:href="data:image/png;base64,iVBORw0KGgoAAAANSUhEUgAAAA0AAAALCAYAAACksgdhAAAABHNCSVQICAgIfAhkiAAAACxJREFU KJHtjaERADAMhNJO9uw/FJ3hVUwxKI5JomrjozolF6gCYP5p79T4AavhQ4rrmV14AAAAAElFTkSu QmCC "/>
 </g>
</svg>

<?xml version="1.0" encoding="UTF-8" standalone="no"?>
<!-- Created with Inkscape (http://www.inkscape.org/) -->

<svg
   xmlns:dc="http://purl.org/dc/elements/1.1/"
   xmlns:cc="http://creativecommons.org/ns#"
   xmlns:rdf="http://www.w3.org/1999/02/22-rdf-syntax-ns#"
   xmlns:svg="http://www.w3.org/2000/svg"
   xmlns="http://www.w3.org/2000/svg"
   xmlns:xlink="http://www.w3.org/1999/xlink"
   xmlns:sodipodi="http://sodipodi.sourceforge.net/DTD/sodipodi-0.dtd"
   xmlns:inkscape="http://www.inkscape.org/namespaces/inkscape"
   width="24"
   height="24"
   id="svg5375"
   version="1.1"
   inkscape:version="0.48.0 r9654"
   sodipodi:docname="tm_copy.svg"
   inkscape:export-filename="/Users/vdhoeven/magix/texmacs/icons/tm_copy.png"
   inkscape:export-xdpi="90"
   inkscape:export-ydpi="90">
  <defs
     id="defs5377" />
  <sodipodi:namedview
     id="base"
     pagecolor="#000000"
     bordercolor="#999999"
     borderopacity="1.0"
     inkscape:pageopacity="0.0"
     inkscape:pageshadow="2"
     inkscape:zoom="22.395604"
     inkscape:cx="10.41478"
     inkscape:cy="11.154981"
     inkscape:current-layer="layer1"
     showgrid="true"
     inkscape:grid-bbox="true"
     inkscape:document-units="px"
     inkscape:window-width="1392"
     inkscape:window-height="1137"
     inkscape:window-x="38"
     inkscape:window-y="0"
     inkscape:window-maximized="0"
     showguides="true"
     inkscape:guide-bbox="true">
    <inkscape:grid
       type="xygrid"
       id="grid5383"
       empspacing="8"
       visible="true"
       enabled="true"
       snapvisiblegridlinesonly="true"
       spacingx="0.5px"
       spacingy="0.5px" />
  </sodipodi:namedview>
  <metadata
     id="metadata5380">
    <rdf:RDF>
      <cc:Work
         rdf:about="">
        <dc:format>image/svg+xml</dc:format>
        <dc:type
           rdf:resource="http://purl.org/dc/dcmitype/StillImage" />
        <dc:title></dc:title>
      </cc:Work>
    </rdf:RDF>
  </metadata>
  <g
     id="layer1"
     inkscape:label="Layer 1"
     inkscape:groupmode="layer">
    <path
       style="fill:#000000;stroke:#ffffff;stroke-width:0;stroke-linecap:butt;stroke-linejoin:miter;stroke-opacity:1;stroke-miterlimit:4;stroke-dasharray:none;fill-opacity:0.87843138"
       d="M 5,4 5,15 18,15 18,4 z"
       id="path9719"
       inkscape:connector-curvature="0" />
    <path
       style="fill:#000000;fill-opacity:0.87843137;stroke:#ffffff;stroke-width:0;stroke-linecap:butt;stroke-linejoin:miter;stroke-miterlimit:4;stroke-opacity:1;stroke-dasharray:none"
       d="M 3,4 3,23 20,23 20,4 18,4 18,15 5,15 5,4 z"
       id="path8471"
       inkscape:connector-curvature="0"
       sodipodi:nodetypes="ccccccccc" />
    <path
       style="fill:none;stroke:#7f7f7f;stroke-width:1px;stroke-linecap:butt;stroke-linejoin:miter;stroke-opacity:1"
       d="m 2.5,0.5 0,23 18,0 0,-23 z"
       id="path8349"
       inkscape:connector-curvature="0"
       sodipodi:nodetypes="ccccc" />
    <path
       style="fill:none;stroke:#ffffff;stroke-width:0;stroke-linecap:butt;stroke-linejoin:miter;stroke-miterlimit:4;stroke-opacity:1;stroke-dasharray:none"
       d="M 5,4 5,15 18,15 18,4 z"
       id="path8377"
       inkscape:connector-curvature="0"
       sodipodi:nodetypes="ccccc" />
    <path
       style="fill:none;stroke:#bfbfbf;stroke-width:1;stroke-linecap:butt;stroke-linejoin:miter;stroke-miterlimit:4;stroke-opacity:1;stroke-dasharray:1, 1;stroke-dashoffset:0.5"
       d="m 5.5,4.5 0,10 12,0 0,-10 z"
       id="path8381"
       inkscape:connector-curvature="0"
       sodipodi:nodetypes="ccccc" />
    <path
       style="fill:#bfbfbf;fill-opacity:1;stroke:#7f7f7f;stroke-width:0;stroke-linecap:butt;stroke-linejoin:miter;stroke-miterlimit:4;stroke-opacity:1;stroke-dasharray:none"
       d="M 5,4 5,5 6,5 6,4 z"
       id="path8383"
       inkscape:connector-curvature="0"
       sodipodi:nodetypes="ccccc" />
    <path
       style="fill:#000000;fill-opacity:0.87843137;stroke:#ffffff;stroke-width:0;stroke-linecap:butt;stroke-linejoin:miter;stroke-miterlimit:4;stroke-opacity:1;stroke-dasharray:none"
       d="M 3,1 3,4 20,4 20,1 z"
       id="path8473"
       inkscape:connector-curvature="0" />
    <image
       y="7"
       x="10"
       id="image8515"
       xlink:href="data:image/png;base64,iVBORw0KGgoAAAANSUhEUgAAAA0AAAALCAYAAACksgdhAAAABHNCSVQICAgIfAhkiAAAACxJREFUKJHtjaERADAMhNJO9uw/FJ3hVUwxKI5JomrjozolF6gCYP5p79T4AavhQ4rrmV14AAAAAElFTkSuQmCC"
       height="11"
       width="13" />
  </g>
</svg>
